madverra/assets/images/madverra-logo.svg

<svg width="160" height="129" viewBox="0 0 160 129" fill="none" xmlns="http://www.w3.org/2000/svg">
<path d="M137.328 38.3939L145.941 87.2999C145.152 91.3316 141.932 94.982 133.328 98.1794L91.1848 108.748C87.596 112.789 86.468 123.669 89.5442 124.394C89.5442 124.394 123.792 121.182 141.634 119.628C147.037 121.593 154.583 117.637 152.503 108.644L154.759 49.4806L137.328 38.3939Z" fill="#F4E805"/>
<path d="M109.259 96.2551L97.1619 42.0903L101.673 41.1738L114.692 93.7806C115.512 96.9883 143.704 92.0392 142.987 88.5565L129.557 20.736C128.839 17.1616 120.433 3.59752 117.46 3.96412L101.57 6.16371C97.6745 6.71361 96.6493 10.6545 91.216 11.571C86.3977 12.3959 80.0417 2.22278 75.736 3.04763L59.846 6.25536C55.4379 7.17185 55.2328 15.9702 50.4146 17.1616C45.4938 18.4447 42.3158 14.7788 38.8303 15.6953L26.4258 18.903C21.4026 20.1861 21.3 30.5425 16.4818 32.3754C12.0736 34.0251 8.28051 31.184 5 33.1086L22.1151 56.8458L26.6257 55.9294L42.5157 108.17C43.3358 111.011 70.5026 105.878 69.785 103.037C65.3768 85.3488 56.6629 50.0638 56.6629 50.0638L61.1736 49.1473L75.2183 102.946C76.0385 105.878 110.074 99.6461 109.254 96.2551H109.259Z" fill="black"/>
</svg>

<svg version="1.2" xmlns="http://www.w3.org/2000/svg" viewBox="0 0 160 129" width="160" height="129"><style>.a{fill:#cac003}</style><path class="a" d="m137.3 38.4l8.6 48.9c-0.7 4-4 7.7-12.6 10.9l-42.1 10.5c-3.6 4.1-4.7 15-1.7 15.7 0 0 34.3-3.2 52.1-4.8 5.4 2 13-2 10.9-11l2.3-59.1z"/><path  d="m109.3 96.3l-12.1-54.2 4.5-0.9 13 52.6c0.8 3.2 29-1.8 28.3-5.2l-13.4-67.9c-0.8-3.5-9.2-17.1-12.1-16.7l-15.9 2.2c-3.9 0.5-5 4.5-10.4 5.4-4.8 0.8-11.2-9.4-15.5-8.6l-15.9 3.3c-4.4 0.9-4.6 9.7-9.4 10.9-4.9 1.2-8.1-2.4-11.6-1.5l-12.4 3.2c-5 1.3-5.1 11.6-9.9 13.5-4.4 1.6-8.2-1.2-11.5 0.7l17.1 23.7 4.5-0.9 15.9 52.3c0.8 2.8 28-2.3 27.3-5.2-4.4-17.7-13.1-52.9-13.1-52.9l4.5-1 14 53.8c0.8 3 34.9-3.3 34.1-6.6z"/></svg>
